app/dist/common/images/internet-initiative-japan.svg

<svg height="18" viewBox="0 0 18 18" width="18" xmlns="http://www.w3.org/2000/svg"><path d="m0 0h18v18h-18z" fill="#f0f3fa"/><path d="m3 6h3v.29h-1v5.42h1v.29h-3v-.29h1v-5.41h-1zm4 0h3v.29h-1v5.42h1v.29h-3v-.29h1v-5.41h-1zm6 0h-1v.3h1v5.95c-.03.16-.4.46-.78.46-.37 0-.49-.3-.53-.45h-.69c.13.25.49.74 1.14.74.8 0 1.83-.58 1.86-1.75v-4.95h1v-.3z" fill="#315055"/><circle cx="12" cy="12" fill="#f1012e" r="1"/></svg>

<!-- by TradingView --><svg width="18" height="18" viewBox="0 0 18 18" xmlns="http://www.w3.org/2000/svg"><path fill="#F0F3FA" d="M0 0h18v18H0z"/><path d="M3 6h3v.29H5v5.42h1V12H3v-.29h1V6.3H3V6ZM7 6h3v.29H9v5.42h1V12H7v-.29h1V6.3H7V6ZM13 6h-1v.3h1v5.95c-.03.16-.4.46-.78.46-.37 0-.49-.3-.53-.45H11c.13.25.49.74 1.14.74.8 0 1.83-.58 1.86-1.75V6.3h1V6h-2Z" fill="#315055"/><circle cx="12" cy="12" r="1" fill="#F1012E"/></svg>
